!!!OTL: Es war einmal eine J&uuml;din (17a), S. 73f
!!!id: T0128
**kern
*clefG2
*k[f#]
*G:
{8d
=1
4b
8a
4g
16f#
16f#
=2
8a
4e}
4r
=3
{8a
=4
4a
8a
4g
8a
=5
4b}
4.r
=6
{8b
=7
8b
8b
8b
4dd
8dd
=8
4cc
8e
4e}
=9
{8e
=10
8.d
16d
8cc
4b
8a
=11
4b}
4.r
=12
{8b
=13
8b
8b
8b
4dd
8dd
=14
4cc
8e
4e}
=15
{8e
=16
8.d
16d
8cc
4b
8a
=17
4g}
4.r
==
*-
!!!minrhy: 16
!!!meters: 6/8 ]  ZZ[6
!!!cut: Es war einmal eine J&uuml;din (17a), S. 73f
!!!reg: Luxemburg
!!!trd: Singendes Volk, Esch-Alzette 1937 posth.
!!!rhy1: X_  X__X_X__XX  X_X__0__
!!!rhy2: X_  X__X_X__X_  X__0__.
!!!key: T0128  16  G 6/8 ]  ZZ[6
!!!mod: HEPTATONIK IONISCH]  AMBITUS[8
!!!kad: -63-63-61
!!!akz: 312_213_354-6_-533_354-6_-531_
!!!fot: 'a__b__c__d__c__dw_
!!!for: 'a__b__c__d__c__d__
!!!fok: '^a_/__^d_/__^d_^a_
!! PHRAS[AUFTAKTIG]
!!!fkt: Liebeslieder
!!!bem: Esch-Alz., fff Anna M&uuml;ller, 1915
!! THILL, Mathias:
!! PR[47] 2K[0] 2G[2] 3K[4] 3G[4] 4A[2] 4Ü[0] 5A[2] 6K[0] 6G[0]
!! 7K[4] 7G[0] 8A[0] MEHR[0] SI[20] ABS[45] SR[2] SP[18]
!! ST[12] 2k[4] 2g[22] 3k[0] 3g[0] 4d[2] 4ü[0] 5d[0] 6k[4] 6g[0]
!! 7k[0] 7g[0] 8d[0] mehr[0] si[33] dm[-13] sr[27] sp[7]
!! 1F[8] 2F[47] 3F[33] 4F[0] LF[0] 2P[4] 3P[8] 4P[0] TRI[0] DF[5] AB[49]
!! TF[0] U3K[0] U3[0] U4[0] U4Ü[0] U5[13] U6K[0] U6[13] U7K[0] U7[0]
!! N1[13] N2K[0] N2[17] N3K[0] N3[26] N4[9] N4Ü[0] N5[9] N6K[0] N6[0]
!!!n7k: 0] N7[0] O1[0] O2K[0] O2[0] O3K[0] O3[0] HÖ[0
!!!RNB: symbol: &uuml;  = u umlaut (UTF-8: Ã¼)
